X: 23091
T: Launching The Boat
R: reel
M: 4/4
K: Dmajor
defd AGFA|BE~E2 BAFA|defd AGFA|~E2EF GABc|
defd AGFA|BE~E2 BAFG|~A2FA DAFA|EDcd edd2:|
fd~d2 fdgd|fd~d2 eaag|eggf ~g2gf|efga bgag|
fd~d2 edBc|defd BAFG|~A2FA DAFA|EDcd edd2:|

